X:1
T:Valses poéticos
T:Introducción
T:Valses poéticos
T:Introducción
T:Enrique Granados
T:OpenScore (CC0)
T:OpenScore (CC0)
T:OpenScore (CC0)
C:Enrique Granados
Z:OpenScore (CC0)
%%score { ( 1 3 ) | ( 2 4 ) }
L:1/8
Q:1/4=130
M:2/4
K:A
V:1 treble nm="Piano" snm="Pno."
V:3 treble 
V:2 bass 
V:4 bass 
V:1
!ff!"^Vivace molto" [CA]/ z/ [ca]/ z/ [cg]/ z/ [CG]/ z/ | [CF]/ z/ [cf]/ z/ [Be]/ z/ [B,E]/ z/ | %2
 (ED (3C/D/C/A,) | (C/D/E/(A/{/A} E/)D/C/B,/) | [A,A]/ z/ [ca]/ z/ [cg]/ z/ [CG]/ z/ | %5
 [CF]/ z/ [cf]/ z/ [Be]/ z/ [B,E]/ z/ | (ED (3C/D/C/A,) | (C/D/E/A/{/A} E/D/C/B,/) | %8
{/A} (E/D/C/)B,/ ([ec']/d/c/B/) | ([e'a']/d'/c'/)b/!8va(! ([e''a'']/d''/c''/)b'/ | %10
 ([a'c'']e' [b'd'']/[a'c'']/e') | [c'a'][ae'] [bd']/[ac']/[eb]!8va)! | ([ca]g/f/ e/f/d/c/ | %13
 B/d/B/A/ G/A/G/F/) | (6:4:6(E/A/E/D/C/B,/) (6:4:6(e/a/e/d/c/B/) | %15
 (6:4:6(e'/a'/e'/d'/c'/b/)!8va(! (6:4:6(e''/a''/e''/d''/c''/b'/) | %16
!ff! ([c''e'']e' [b'd'']/[a'c'']/[e'b']) | ([c'a'][ae'] [bd']/[ac']/[eb])!8va)! | %18
 ([ca]g/f/ e/f/d/c/) | B/d/B/A/ G/{/B}A/G/F/ | %20
[I:staff +1] A,,/4E,/4C/4!<(![I:staff -1]E/4A/4c/4!<)!"^iz." a/!>(! g/4e/4c/4G/4!>)!E/4C/4[I:staff +1]E,/4[I:staff -1] z/4 | %21
[I:staff +1] F,/4A,/4[I:staff -1]F/4A/4d/4f/4a/4 z/4[I:staff +1] E,/4[I:staff -1]D/4E/4G/4d/4e/4b/4 z/4 | %22
 [ae'][ec'] [dfb]b/g/ | [Ae][Ec] [DFB]B/G/ | %24
[I:staff +1] A,,/4E,/4C/4!<(![I:staff -1]E/4A/4c/4!<)!"^iz." a/!>(! g/4e/4c/4G/4!>)!E/4C/4[I:staff +1]E,/4[I:staff -1] z/4 | %25
[I:staff +1] F,/4A,/4[I:staff -1]F/4A/4d/4f/4a/4 z/4[I:staff +1] E,/4[I:staff -1]D/4E/4G/4d/4e/4b/4 z/4 | %26
 [ae'][ec'] [dfb]/g/b/g/ | [Ae][Ec] [DFB]/G/B/G/ |!ff! [CA]/ z/ [ca]/ z/ [cg]/ z/ [CG]/ z/ | %29
 [CF]/ z/ [cf]/ z/ [Be]/ z/ [B,E]/ z/ | (ED (3C/D/C/B,) | (C/D/E/A/{/A} E/D/C/B,/) | %32
 [CA]/ z/ [ca]/ z/ [cg]/ z/ [CG]/ z/ | [CF]/ z/ [cf]/ z/ [Be]/ z/ [B,E]/ z/ | (ED (3C/D/C/B,) | %35
 (C/D/E/A/{/A} E/D/C/B,/) |{/A} (E/D/C/B,/) ([ea]/d/c/B/) | %37
 ([e'a']/d'/c'/b/)!8va(! ([e''a'']/d''/c''/b'/) | ([c''e'']e' [b'd'']/[a'c'']/[e'b']) | %39
 ([c'a'][ae'] [bd']/[ac']/[eb])!8va)! | ([ca]g/f/ e/f/d/c/ | B/d/B/A/ G/A/G/F/) | %42
 (6:4:6(E/A/E/D/C/B,/) (6:4:6(e/a/e/d/c/B/) | %43
 (6:4:6(e'/a'/e'/d'/c'/b/)!8va(! (6:4:6(e''/a''/e''/d''/c''/b'/) | %44
!ff! ([c''e'']e' [b'd'']/[a'c'']/[e'b']) |"_dim." ([c'a'][ae'] [bd']/[ac']/[eb])!8va)! | %46
 ([ca]g/f/ e/f/d/c/) | B/d/B/A/ G/{/B}A/G/F/ | z/ (E/F/G/ A/B/c/d/) | (F/d/B/G/ F/E/F/D/) | %50
 z/ (E/"_accel."F/G/ A/B/c/d/) | (F/d/B/G/ F/E/F/D/) | z/ (E/F/G/ A/B/c/d/) | %53
 z/ (e/f/g/ a/b/c'/d'/) |!8va(! z/ (e'/f'/g'/ a'/b'/c''/e''/ | d''/c''/b'/a'/ z d'/c'/)!8va)! | %56
"_rall" (bafe | dcBA) |!pp![Q:1/4=60]"^Meno molto" (([CF]4 | [DA]4)) | ((!fermata![Gc]4 | %61
 !fermata![DB]4)) |] %62
V:2
 [A,,E,]/ z/ [A,E]/ z/ [A,E]/ z/ [A,,E,]/ z/ | [A,,D,]/ z/ [A,D]/ z/ [G,D]/ z/ [G,,E,]/ z/ | %2
 E,D, C,B,, | C, z [E,,,E,,] z | [A,,E,]/ z/ [A,E]/ z/ [A,E]/ z/ [A,,E,]/ z/ | %5
 [A,,D,]/ z/ [A,D]/ z/ [G,D]/ z/ [G,,E,]/ z/ | E,D, C,B,, | C, z [E,,,E,,] z | %8
!<(! !>![A,,E,]>[I:staff -1]B,[I:staff +1] A,>[I:staff -1]B | %9
"^https://musescore.org/en/node/280969" !>![Ae]>b[I:staff +1][K:treble] !>![ae']>[I:staff -1]b!<)! | %10
[I:staff +1][K:bass] (A,,/E,/C/E,/) (A,,/E,/D/E,/) | (A,,/E,/C/E,/) (A,,/E,/D/E,/) | %12
!<(! A,,/E,/A,/B,/ C/D/E/F/!<)! |[I:staff -1] G2[I:staff +1] DE, | %14
!<(! (6:4:3[A,,E,]3/2-x[I:staff -1]B,/[I:staff +1] (6:4:3A,3/2-x[I:staff -1]B/ | %15
"^https://musescore.org/en/node/280969" (6:4:3A3/2-xb/[I:staff +1][K:treble] (6:4:3a3/2-x[I:staff -1]b/!<)! | %16
[I:staff +1][K:bass] (A,,/E,/C/E,/) (A,,/E,/D/E,/) | (A,,/E,/C/E,/) (A,,/E,/D/E,/) | %18
!<(! (A,,/E,/A,/B,/ C/D/E/^E/)!<)! |[I:staff -1] G2[I:staff +1] [E,D]2 | %20
 A,,/4E,/4C/4 x/4 x x[I:staff -1] E/4C/4[I:staff +1]E,/4 z/4 | %21
 F,/4A,/4[I:staff -1]F/4[I:staff +1] x/4 x E,/4[I:staff -1]D/4E/4[I:staff +1] x/4 x | %22
 A,,/E,/C/E,/ A,,/E,/D/E,/ | A,,/E,/C/E,/ A,,/E,/D/E,/ | %24
 A,,/4E,/4C/4 x/4 x x[I:staff -1] E/4C/4[I:staff +1]E,/4 z/4 | %25
 F,/4A,/4[I:staff -1]F/4[I:staff +1] x/4 x E,/4[I:staff -1]D/4E/4[I:staff +1] x/4 x | %26
 (A,,/E,/C/E,/) (A,,/E,/D/E,/) | (A,,/E,/C/E,/) (A,,/E,/D/E,/) | %28
 [A,,E,]/ z/ [A,E]/ z/ [A,E]/ z/ [A,,E,]/ z/ | [A,,D,]/ z/ [A,D]/ z/ [G,D]/ z/ [G,,E,]/ z/ | %30
 E,D, C,B,, | [E,,C,] z [E,,,E,,] z | [A,,E,]/ z/ [A,E]/ z/ [A,E]/ z/ [A,,E,]/ z/ | %33
 [A,,D,]/ z/ [A,D]/ z/ [G,D]/ z/ [G,,E,]/ z/ | (E,D, C,B,,) | [E,,C,] z [E,,,E,,] z | %36
 !>![A,,E,]>[I:staff -1]B,[I:staff +1] !>![A,E]>[I:staff -1]G | %37
"^https://musescore.org/en/node/280969" !>![Ae]>b[I:staff +1][K:treble] !>![ae']>[I:staff -1]b | %38
[I:staff +1][K:bass] (A,,/E,/C/E,/) (A,,/E,/D/E,/) | (A,,/E,/C/E,/) (A,,/E,/D/E,/) | %40
 (A,,/E,/A,/B,/ C/D/E/F/) |[I:staff -1] G2[I:staff +1] DE, | %42
!<(! (6:4:4[A,,E,]-x-x/[I:staff -1]B,/[I:staff +1] (6:4:4A,-x-x/[I:staff -1]B/ | %43
 (6:4:4A-[I:staff +1]x-x/[I:staff -1]b/[I:staff +1][K:treble] (6:4:4axx/[I:staff -1]b/!<)! | %44
[I:staff +1][K:bass] (A,,/E,/C/E,/) (A,,/E,/D/E,/) | (A,,/E,/C/E,/) (A,,/E,/D/E,/) | %46
 (A,,/E,/A,/B,/ C/D/E/F/) |[I:staff -1] G2[I:staff +1] [E,D]2 |{/F,} [A,,E,C]2 z2 | %49
[I:staff -1] D2[I:staff +1] [E,,E,]2 | [A,,E,C]2 z2 |[I:staff -1] D2[I:staff +1] [E,,E,]2 | %52
 [A,,E,C]2 z2 |[I:staff -1] [A,Ec]2[I:staff +1] z2 |[K:treble] [Aec']2 z2 | %55
 z2!8va(! f'/e'/ z!8va)! | z4 | z4 |[K:bass] (([A,,=G,]4 | [D,F,]4)) | ((!fermata![E,D]4 | %61
 !fermata![D,F,G,]4)) |] %62
V:3
 x4 | x4 | A,2- A,2 | x4 | x4 | x4 | A,2- A,2 | x4 | x2 !>!E3/2 x/ | x2!8va(! x2 | x4 | x4!8va)! | %12
 x4 | x4 | x4 | x2!8va(! x2 | x4 | x4!8va)! | x4 | x4 | x4 | x4 | x4 | x4 | x4 | x4 | x4 | x4 | %28
 x4 | x4 | x4 | x4 | x4 | x4 | x4 | x4 | x4 | x2!8va(! x2 | x4 | x4!8va)! | x4 | x4 | x4 | %43
 x2!8va(! x2 | x4 | x4!8va)! | x4 | x4 | x4 | x4 | x4 | x4 | x4 | x4 |!8va(! x4 | x4!8va)! | x4 | %57
 x4 | x4 | x4 | x4 | x4 |] %62
V:4
 x4 | x4 | F,,2- F,,2 | E,, x x x | x4 | x4 | F,,2- F,,2 | E,, x x x | x4 | x2[K:treble] x2 | %10
[K:bass] x4 | x4 | x4 | x4 | x4 | x2[K:treble] x2 |[K:bass] x4 | x4 | x4 | x4 | x4 | x4 | x4 | x4 | %24
 x4 | x4 | x4 | x4 | x4 | x4 | F,,2- F,,2 | x4 | x4 | x4 | F,,2- F,,2 | x4 | x4 | x2[K:treble] x2 | %38
[K:bass] x4 | x4 | x4 | x4 | x4 | x2[K:treble] x2 |[K:bass] x4 | x4 | x4 | x4 | x4 | x4 | x4 | x4 | %52
 x4 | x4 |[K:treble] x4 | x2!8va(! x2!8va)! | x4 | x4 |[K:bass] x4 | x4 | x4 | x4 |] %62

